svgs/sharp-regular/hockey-sticks.svg

<svg xmlns="http://www.w3.org/2000/svg" viewBox="0 0 640 512"><!--! Font Awesome Pro 6.6.0 by @fontawesome - https://fontawesome.com License - https://fontawesome.com/license (Commercial License) Copyright 2024 Fonticons, Inc. --><path d="M307.9 320L466.7 13 509.3 35l-240 464-6.7 13L248 512 24 512 0 512l0-24L0 344l0-24 24 0 280 0 3.9 0zM283 368l-139 0 0 96 89.4 0L283 368zM48 368l0 96 48 0 0-96-48 0zM173.3 13L302 261.7 288.4 288l-26.9 0L130.7 35 173.3 13zM496 368l-122.9 0 24.8-48L616 320l24 0 0 24 0 144 0 24-24 0-224 0-14.6 0-6.7-13L338 435.9l27-52.2L406.6 464l89.4 0 0-96zm48 0l0 96 48 0 0-96-48 0z"/></svg>

<svg xmlns="http://www.w3.org/2000/svg" viewBox="0 0 640 512"><!--! Font Awesome Pro 6.4.2 by @fontawesome - https://fontawesome.com License - https://fontawesome.com/license (Commercial License) Copyright 2023 Fonticons, Inc. --><path d="M307.9 320L466.7 13 509.3 35l-240 464-6.7 13H248 24 0V488 344 320H24 304h3.9zM283 368H144v96h89.4L283 368zM48 368v96H96V368H48zM173.3 13L302 261.7 288.4 288H261.5L130.7 35 173.3 13zM496 368H373.1l24.8-48H616h24v24V488v24H616 392 377.4l-6.7-13L338 435.9l27-52.2L406.6 464H496V368zm48 0v96h48V368H544z"/></svg>
